!! Isochronous pitch passage.
!! Inner-voice line.
!! From Schumann, Symphony No. 1, 3rd movement, 11 measures before "H"
!! First violin
!! 2/2 meter
**kern	**metpos
*M2/2	*M2/2
*tb8	*tb8
=0	=0
8d	1
8b-	4
8an	3
8b-	4
8cc	2
8dd	4
8ee-	3
8ff	4
=1	=1
8aa-	1
8gg	4
8ff#	3
8gg	4
8bb-	2
8gg	4
8bb-	3
8ffn	4
=2	=2
8ff	1
8ee-	4
8dd	3
8ee-	4
8gg	2
8ee-	4
8gg	3
8dd	4
=3	=3
8dd	1
8cc	4
8bn	3
8cc	4
8gg	2
8cc	4
8ff	3
8a	4
=4	=4
8cc	1
8bn	4
8a#	3
8b	4
8gg	2
8b	4
8ff	3
8b	4
=5	=5
8dd	1
8cc	4
8bn	3
8cc	4
8gg	2
8cc	4
8ff	3
8a	4
=6	=6
8cc	1
8bn	4
8a#	3
8b	4
8gg	2
8b	4
8ff	3
8b	4
=7	=7
8dd	1
8cc	4
8bn	3
8cc	4
8ee	2
8dd	4
8cc#	3
8dd	4
=8	=8
8ff	1
8ee	4
8dd#	3
8ee	4
8gg	2
8ff	4
8ee	3
8ff	4
=9	=9
8gg	1
8ff	4
8eee	3
8ddd	4
8ccc#	2
8ddd	4
8cccn	3
8bb-	4
=10	=10
8aa	1
8gg	4
8ff#	3
8gg	4
8ffn	2
8ee-	4
8dd	3
8cc	4
=11	=11
8gg	1
8ff	4
8dd	3
8b-	4
8aa	2
8gg	4
8ff	3
8ee-	4
=12	=12
8cc	1
8a	4
8g	3
8f	4
8e	2
8c	4
8A	3
8c	4
=13	=13
*-	*-
